X: 121556
T: Longstone
S: B.Breathnach: "Ceol Rince na hEireann" II/256 (gan ainm)
Z: B.Black
L: 1/8
M: 4/4
R: reel
K: D
FABc (3ddd BA|dBBA FE E2|FABc (3ddd BA|fgfe dBBA|
FABc d2 BA|d2 BA FE E2|FABc d2 BA|fgfe dBB ||
e|ad (3ddd Adfb|adfa beef|ad (3ddd abaf|(3efa fe dBBe|
ad (3ddd Adfb|adfa beef|g2 ge fffd|egfe dBBA ||
W:
P: alternate m 11:
afdf abaf|
